assets/fonts/svg-files-for-custom-font/instagram.svg

<svg enable-background="new 0 0 20 20" viewBox="0 0 20 20" xmlns="http://www.w3.org/2000/svg"><path d="m17 1h-14c-1.1 0-2 .9-2 2v14c0 1.101.9 2 2 2h14c1.1 0 2-.899 2-2v-14c0-1.1-.9-2-2-2zm-7.016 14.523c3.059 0 5.538-2.481 5.538-5.539 0-.338-.043-.664-.103-.984h1.581v7.216c0 .382-.31.69-.693.69h-12.614c-.383 0-.693-.308-.693-.69v-7.216h1.549c-.061.32-.104.646-.104.984 0 3.059 2.481 5.539 5.539 5.539zm-3.461-5.539c0-1.912 1.55-3.461 3.462-3.461 1.911 0 3.462 1.549 3.462 3.461s-1.551 3.462-3.462 3.462c-1.913 0-3.462-1.55-3.462-3.462zm9.784-3.984h-1.615c-.382 0-.692-.312-.692-.692v-1.617c0-.382.31-.691.691-.691h1.615c.384 0 .694.309.694.691v1.616c0 .381-.31.693-.693.693z"/></svg>

<?xml version="1.0" encoding="utf-8"?>
<!-- Generator: Adobe Illustrator 18.1.1, SVG Export Plug-In . SVG Version: 6.00 Build 0)  -->
<!DOCTYPE svg PUBLIC "-//W3C//DTD SVG 1.1//EN" "http://www.w3.org/Graphics/SVG/1.1/DTD/svg11.dtd">
<svg version="1.1" id="Instagram" xmlns="http://www.w3.org/2000/svg" xmlns:xlink="http://www.w3.org/1999/xlink" x="0px" y="0px"
	 viewBox="0 0 20 20" enable-background="new 0 0 20 20" xml:space="preserve">
<path d="M17,1H3C1.9,1,1,1.9,1,3v14c0,1.101,0.9,2,2,2h14c1.1,0,2-0.899,2-2V3C19,1.9,18.1,1,17,1z M9.984,15.523
	c3.059,0,5.538-2.481,5.538-5.539c0-0.338-0.043-0.664-0.103-0.984H17v7.216c0,0.382-0.31,0.69-0.693,0.69H3.693
	C3.31,16.906,3,16.598,3,16.216V9h1.549C4.488,9.32,4.445,9.646,4.445,9.984C4.445,13.043,6.926,15.523,9.984,15.523z M6.523,9.984
	c0-1.912,1.55-3.461,3.462-3.461c1.911,0,3.462,1.549,3.462,3.461s-1.551,3.462-3.462,3.462C8.072,13.446,6.523,11.896,6.523,9.984z
	 M16.307,6h-1.615C14.31,6,14,5.688,14,5.308V3.691C14,3.309,14.31,3,14.691,3h1.615C16.69,3,17,3.309,17,3.691v1.616
	C17,5.688,16.69,6,16.307,6z"/>
</svg>
